!!!!SEGMENT: pl-kozmzk--mzk-m-346--034_walczynski-franciszek--cantantibus-organis-allegro-pastorale.krn
!!!cenid: 18xx:2829
!!!COM: Walczyński, Franciszek
!!!COM-rismID: pe30021989
!!!CDT: ~1852-1937
!!!CNT: Polish
!!!GTL: Cantantibus organis op. 10
!!!OTL: 34. Allegro pastorale
!!!PDT: 1898
!!!AGN: Secular
!!!SMS-siglum: PL-KOZmzk
!!!SMS-shelfmark: mzk/m/346
!!!SMS-shelfwork: 034 G
!!!SMS-variant:
!!!SMS-altvar:
!!!NIFC-rismSourceID: 1001099615
!!!NIFC-rismChildID: 1001109428
!!!NIFC-islandoraID: pl-kozmzk:7453
!!!URL-pdf-islandora: https://repozytorium.nifc.pl/islandora/object/pl-kozmzk%3A7453/datastream/PDF/view
!!!URL-scan: https://polish.musicsources.pl/pl/lokalizacje/galeria/druki-muzyczne/7581 @EN{Scan on Polish Music Sources Website} @PL{Skany w portalu Dziedzictwo Muzyki Polskiej w otwartym dostępie}
!!!ONB-nifc:
!!!AIN: 1 organ
!!!key:
**kern	**kern	**dynam
*part1	*part1	*part1
*staff2	*staff1	*
*Iorgan	*Iorgan	*
*I"Organo	*I"Organo	*
*clefF4	*clefG2	*
*>[A,B,A,C]	*>[A,B,A,C]	*
*>A	*>A	*
*k[b-e-a-d-]	*k[b-e-a-d-]	*
*A-:	*A-:	*
*M3/4	*M3/4	*
=1	=1	=1
*	*^	*
!!LO:TX:B:t=Allegro Pastorale
!LO:TX:t=[segno]	!LO:TX:t=[segno]	!	!LO:DY:a
2.r	(8cc/L	8a-\L	pp
.	8dd-/J	8b-\J	.
.	[2ee-/	2cc\	.
=2	=2	=2	=2
2.r	2.ee-/]	4dd- 4b-\	.
.	.	(4dd- 4b-\	.
.	.	4cc 4a-\))	.
=3	=3	=3	=3
2.r	(8a-/L	8f\L	.
.	8b-/J	8g\J	.
.	[2cc/	2a-\	.
=4	=4	=4	=4
2.r	2.cc/]	4b- 4g\	.
.	.	(4b- 4g\	.
.	.	4a- 4f\))	.
*	*v	*v	*
=5	=5	=5
!LO:TX:i:b=2:t=Ped.	!	!LO:DY:b=2
8cL 8C\	4cc 4g 4en/	f <
8d-J 8D-\	.	.
4c 4C\	4cc 4g 4e/	.
4B- 4BB-\	4cc 4g 4e/	[[
=6	=6	=6
*	*^	*
2A- 2AA-\	2ff 2cc/	2.f\	.
4B- 4BB-\	4dd- 4b-/	.	.
=7	=7	=7	=7
*^	*	*	*
(2c/	2.C\	(8cc/L	8a-\L	p
.	.	8b-/J	8g\J	.
.	.	4a-/	4f\	.
4B-/	.	4g/	4en\	.
=8	=8	=8	=8	=8
2.A-/)	2.F\	2.f/)	2.f\	.
*v	*v	*	*	*
=9	=9	=9	=9
2.r	(8cc/L	8a-\L	pp
.	8dd-/J	8b-\J	.
.	[2ee-/	2cc\	.
=10	=10	=10	=10
!!LO:LB:g=original
2.r	2.ee-/])	4dd- 4b-\	.
.	.	(4dd- 4b-\	.
.	.	4cc 4a-\)	.
=11	=11	=11	=11
2.r	(8a-/L	8f\L	.
.	8b-/J	8g\J	.
.	[2cc/	2a-\	.
=12	=12	=12	=12
2.r	2.cc/]	4b- 4g\	.
.	.	(4b- 4g\	.
.	.	4a- 4f\))	.
*	*v	*v	*
=13	=13	=13
!LO:TX:i:b=2:t=Ped.	!	!
8c;L 8C\	4cc 4g 4en/	f
8d-J 8D-\	.	.
4c 4C\	4cc 4g 4e/	.
4B- 4BB-\	4cc 4g 4e/	.
=14	=14	=14
*^	*^	*
2A-/	2AA-\	2ff 2cc/	2.f\	.
4d-\	4BB-\	4dd- 4b-/	.	.
=15	=15	=15	=15	=15
(8e-/L	2.C\	(8cc/L	8a-\L	p
8d-/J	.	8b-/J	8g\J	.
!LO:TX:i:b:t=rit.	!	!	!	!
4c/	.	4a-/	[2e-\	.
4B-/	.	4g/	.	.
=16	=16	=16	=16	=16
!LO:TX:b:i:t=Fine.	!	!	!	!
2.c/)	2.AA-\	2.a-/)	2.e-\]	.
=17||	=17||	=17||	=17||	=17||
*>B	*>B	*>B	*>B	*
2.rF	2.rBB	8g/L	2.r	.
.	.	8dn/J	.	.
.	.	[<2g^/	.	.
=18	=18	=18	=18	=18
!	!	!	!	!LO:HP:a
2.rF	2.rBB	8g/L]	2.r	<
.	.	8en/J	.	.
.	.	[<2g^/	.	[[
=19	=19	=19	=19	=19
2.rF	2.rBB	8g/L]	2.r	.
.	.	8dn/J	.	.
.	.	[<2g/	.	.
=20	=20	=20	=20	=20
2.rF;	2.rBB	2.g;/]	2.r	.
*v	*v	*	*	*
*	*v	*v	*
=21||	=21||	=21||
*k[]	*k[]	*
*^	*^	*
!!LO:LB:g=original
!LO:TX:b:i:t=Man.	!	!	!	!
(2.G/	(2.C\	(8ee/L	(2.e\	fp
.	.	8ff/J	.	.
.	.	2ee/	.	.
=22	=22	=22	=22	=22
2A/	2.C\	4dd/	2f\	.
.	.	8a/L	.	.
.	.	8b/J	.	.
4G/	.	4cc/	4e\	.
=23	=23	=23	=23	=23
2.G#X/	2.E\	8b/L	2.d\	pp
.	.	8cc/J	.	.
.	.	2b/	.	.
=24	=24	=24	=24	=24
2.A/)	2AA\	2a/	2c\	.
.	4D\)	4f/)	4d\)	.
=25	=25	=25	=25	=25
!	!	!	!	!LO:DY:a:t=pf
[2.Gn/	2Gn\	2e/	2.B\	p
.	4F\	4d/	.	.
=26	=26	=26	=26	=26
2G/]	2E\	2g/	2c\	.
4A/	4F\	4f/	4d\	.
=27	=27	=27	=27	=27
[2.G/	2G\	2e/	2c\	.
.	4GG\	4d/	4B\	.
=28	=28	=28	=28	=28
2G/]	4C\	4e'/	4c\	.
.	4GG\	4d'/	4B\	.
!	!	!	!	!LO:DY:a
4rA	4r	4g/	4r	pp
=29	=29	=29	=29	=29
!	!LO:TX:i:b=2:t=Ped.	!	!	!
(2.G/	([2.C\	(8ee/L	2.e\	.
.	.	8ff/J	.	.
.	.	2ee/	.	.
=30	=30	=30	=30	=30
2A/	2.C\]	4dd/	2f\	.
.	.	8a/L	.	.
.	.	8b/J	.	.
4G/	.	4cc/	4e\	.
=31	=31	=31	=31	=31
(2.G#X/	2.E\	8b/L	2.d\	.
.	.	8cc/J	.	.
.	.	2b/	.	.
=32	=32	=32	=32	=32
!!LO:LB:g=original
2.A/))	2AA\)	2a/	2c\	<
.	4D\	4f/)	4d\	.
=33	=33	=33	=33	=33
4B/	[2.G\	(4g/	2f\	[ f
8c/L	.	8a/L	.	.
8d/	.	8b/	.	.
8e/	.	8cc/	[4g\	.
8f/J	.	8dd/J	.	.
=34	=34	=34	=34	=34
4g/	(2.G\]	4ee/	(2.g\]	.
4f/	.	4dd/	.	.
4e/	.	4cc/	.	.
=35	=35	=35	=35	=35
4f/	2.GG\	4dd/	8b\L	.
.	.	.	8a\J	.
4e/	.	4cc/	4g\	.
4d/	.	4b/	4f\	.
=36	=36	=36	=36	=36
[2.c/	2.C\)	2.cc/)	2.e\)	.
=37	=37	=37	=37	=37
8c/L]	2.r	2.rdd	2.rg	.
8G'/J	.	.	.	.
[2c^/	.	.	.	.
=38	=38	=38	=38	=38
8c/L]	2.r	2.rdd	2.rg	.
8A-X'/J	.	.	.	.
[2c^/	.	.	.	.
=39	=39	=39	=39	=39
4c/]	2.r	2.rdd	2.rg	.
4B-X'/	.	.	.	.
4F'/	.	.	.	.
=40	=40	=40	=40	=40
2A-X/	2.r	2.rdd	2.rg	.
4G/	.	.	.	.
=41	=41	=41	=41	=41
(2.F/	2.r	2.rdd	2.rg	.
*	*	*v	*v	*
=42	=42	=42	=42
!LO:TX:b:t=D.S. al Fine.	!	!	!
4G/)	4E-X\	4e-X 4d-X/	pp
4r	4r	4r	.
4r	4r	4r	.
!LO:TX:t=[segno]	!	!LO:TX:t=[segno]	!
*v	*v	*	*
==43	==43	==43
*>C	*>C	*
*k[b-e-a-d-]	*k[b-e-a-d-]	*
*	*^	*
!!LO:LB:g=original
!!LO:TX:a:B:t=Più lento.
!!LO:TX:a:B:t=Coda.
2.r	(8cc/L	8a-\L	pp
.	8dd-/J	8b-\J	.
.	[2ee-/	2cc\	.
=44	=44	=44	=44
2.r	2.ee-/]	4dd- 4b-\	.
.	.	(4dd- 4b-\	.
.	.	4cc 4a-\))	.
=45	=45	=45	=45
(2.e-\	(2.ee- 2.b-/	2.g\	f <
=46	=46	=46	=46
4f\)	4cc 4a-/)	4f\	[ >
4r	4r	4ryy	]
4r	4r	4ryy	.
=47	=47	=47	=47
2.r	(8a-/L	8f\L	pp
.	8b-/J	8g\J	.
.	[2cc/	2a-\	.
=48	=48	=48	=48
2.r	2.cc/]	4b- 4g\	.
.	.	(4b- 4g\	.
.	.	4a- 4f\))	.
=49	=49	=49	=49
*^	*	*	*
!	!LO:TX:i:b=2:t=Ped.	!	!	!
2.G/	2.E-\	(2.b-/	2.d-\	fp
=50	=50	=50	=50	=50
4A- 4E-/	4AA-\	4a-/)	4c\	.
4E-/	4r	4r	4ryy	.
[4E-^/	4r	4r	4ryy	.
=51	=51	=51	=51	=51
!	!	!	!	!LO:DY:a
!	!	!	!	!LO:HP:a
(4E-/]	[2.AA-\	[2.a-/	(4c\	ppp >
4F'/	.	.	4d-'\	.
4D-'/	.	.	4B-'\	.
=52	=52	=52	=52	=52
2.E-/)	2.AA-;\]	2.a-;/]	2.c\)	]
*v	*v	*	*	*
*	*v	*v	*
==	==	==
*-	*-	*-
!!!system-decoration: {(s1,s2)}
!!!RDF**kern: > = above
!!!RDF**kern: < = below
!!!ENC: Kamil Watkowski
!!!END: 2021-08-09
!!!YEC: Copyright 2022 Narodowy Instytut Fryderyka Chopina (https://polishscores.org)
!!!YEM: License CC-BY-4.0 (https://creativecommons.org/licenses/by/4.0)
